X: 146
T: Betty's Fancy
B: 204 Favourite Country Dances
N: Published by Straight & Skillern, London ca.1775
F: http://imslp.org/wiki/204_Favourite_Country_Dances_(Various) p.73 #146
Z: 2014 John Chambers <jc:trillian.mit.edu>
M: C
L: 1/8
K: Bb
% - - - - - - - - - - - - - - - - - - - - - - - - -
|:\
B2dB bgdB | F2Ac cAFA |\
B2dB bgdB | cAFA B2B,2 :|
|:\
bgdB bgdB | cAFA cAFA |\
bgdB bgdB | cAFA B2B,2 :|
% - - - - - - - - - - - - - - - - - - - - - - - - -
%%begintext align
%% Cast off 2 Cu. .| up again :| Cross over
%% 2 Cu. .|: Lead up and Cast off :|: set
%% Corners and :|| Lead outsides and turn :||:
%%endtext

%%sep 1 1 500
%%sep 1 1 500
